icons/Zeppelin.svg

<svg width="24" height="24" viewBox="0 0 24 24" fill="none" xmlns="http://www.w3.org/2000/svg">
<path fill-rule="evenodd" clip-rule="evenodd" d="M3.29876,3.9431c0.51233,-0.17079 1.07481,-0.09547 1.52416,0.20409l2.47206,1.64804c2.5027,-0.93986 5.38892,-1.5482 7.70492,-1.5482c4.3116,0 7.75,2.92638 7.75,6.75007c0,2.8451 -1.9037,5.1934 -4.6543,6.209l-1.9891,2.735c-0.1411,0.194 -0.3666,0.3089 -0.6066,0.3089h-5.99996c-0.41421,0 -0.75,-0.3358 -0.75,-0.75v-2.8052c-0.49247,-0.1516 -0.97772,-0.3169 -1.44939,-0.4939l-2.88459,1.9231c-0.19257,0.1284 -0.43363,0.1607 -0.65319,0.0875l-1.5,-0.5c-0.38088,-0.127 -0.59423,-0.5314 -0.48402,-0.9174l0.90288,-3.1628c-0.80544,-0.7244 -1.43169,-1.6155 -1.43169,-2.6342c0,-1.01871 0.62619,-1.90984 1.43158,-2.63416l-0.90268,-3.15678c-0.11041,-0.38612 0.10292,-0.7907 0.48391,-0.9177zM3.96787,14.59l-0.54967,1.9255l0.47092,0.157l1.75467,-1.1698c-0.59804,-0.283 -1.16321,-0.5883 -1.67592,-0.9127zM3.77313,5.36611l-0.35463,0.11822l0.54903,1.92c0.51134,-0.32356 1.07488,-0.62817 1.67117,-0.91051l-1.64783,-1.09855c-0.06419,-0.0428 -0.14455,-0.05356 -0.21774,-0.02916zM15.8772,17.7061c-0.2877,0.0271 -0.5804,0.041 -0.8773,0.041c-1.4394,0 -3.099,-0.235 -4.75,-0.6385v1.6414h4.8681zM3.81349,12.6285c0.75044,0.6371 1.833,1.2582 3.10689,1.8042c2.55094,1.0933 5.70022,1.8144 8.07952,1.8144c3.6885,0 6.25,-2.4463 6.25,-5.25c0,-2.80387 -2.5615,-5.25007 -6.25,-5.25007c-2.3793,0 -5.52857,0.72109 -8.07952,1.81436c-1.27389,0.54596 -2.35645,1.16708 -3.10689,1.80425c-0.77483,0.65786 -1.06355,1.21706 -1.06355,1.63146c0,0.4143 0.28872,0.9735 1.06355,1.6314z" fill="#002B51"/>
</svg>

<svg width="24" height="24" viewBox="0 0 24 24" fill="none" xmlns="http://www.w3.org/2000/svg">
<path fill-rule="evenodd" clip-rule="evenodd" d="M3.29876 3.9431C3.81109 3.77231 4.37357 3.84763 4.82292 4.14719L7.29498 5.79523C9.79768 4.85537 12.6839 4.24703 14.9999 4.24703C19.3115 4.24703 22.7499 7.17341 22.7499 10.9971C22.7499 13.8422 20.8462 16.1905 18.0956 17.2061L16.1065 19.9411C15.9654 20.1351 15.7399 20.25 15.4999 20.25H9.49994C9.08573 20.25 8.74994 19.9142 8.74994 19.5V16.6948C8.25747 16.5432 7.77222 16.3779 7.30055 16.2009L4.41596 18.124C4.22339 18.2524 3.98233 18.2847 3.76277 18.2115L2.26277 17.7115C1.88189 17.5845 1.66854 17.1801 1.77875 16.7941L2.68163 13.6313C1.87619 12.9069 1.24994 12.0158 1.24994 10.9971C1.24994 9.97839 1.87613 9.08726 2.68152 8.36294L1.77884 5.20616C1.66843 4.82004 1.88176 4.41546 2.26275 4.28846L3.29876 3.9431ZM3.96787 14.59L3.4182 16.5155L3.88912 16.6725L5.64379 15.5027C5.04575 15.2197 4.48058 14.9144 3.96787 14.59ZM3.99087 5.39527L5.6387 6.49382C5.04241 6.77616 4.47887 7.08077 3.96753 7.40433L3.4185 5.48433L3.77313 5.36611C3.84632 5.34171 3.92668 5.35247 3.99087 5.39527ZM15.8772 17.7061C15.5895 17.7332 15.2968 17.7471 14.9999 17.7471C13.5605 17.7471 11.9009 17.5121 10.2499 17.1086V18.75H15.118L15.8772 17.7061ZM2.74994 10.9971C2.74994 10.5827 3.03866 10.0235 3.81349 9.36564C4.56393 8.72847 5.64649 8.10735 6.92038 7.56139C9.47133 6.46812 12.6206 5.74703 14.9999 5.74703C18.6884 5.74703 21.2499 8.19323 21.2499 10.9971C21.2499 13.8008 18.6884 16.2471 14.9999 16.2471C12.6206 16.2471 9.47132 15.526 6.92038 14.4327C5.64649 13.8867 4.56393 13.2656 3.81349 12.6285C3.03866 11.9706 2.74994 11.4114 2.74994 10.9971Z" fill="#002B51"/>
</svg>
